X:1
T:Je ne mange point de porc
T:Je ne mange point de porc
T:Claudin de Sermisy
C:Claudin de Sermisy
%%score [ 1 2 3 4 ]
L:1/8
Q:1/4=100
M:4/4
K:F
V:1 treble nm="S."
V:2 treble nm="A."
V:3 treble-8 nm="T."
V:4 bass nm="B."
V:1
 d8 | e8 | z2 c2 c4- | c4 f4 | f3 e d3 c | B2 AG B2 c2 | d8 | z2 A2 A2 A2 | d3 c B2 G2 | %9
w: L'en-|nuy,|le dueil,|* la|pei- neet le mar-|ty- * * * *|re,|Que je re-|çoy, si fort mon|
 c2 B2 AG G2- | G2 ^F2 G4- | G4 d4 | g4 e4 | d4 d4 | d3 c B2 A2 | G4 ^F4 | z2 A2 A2 A2 | %17
w: coeur em- pi- * *|* * re,|* Que|si bien|tôt je|ne te voy, m'a-|my- e,|En peu de|
 d3 c B2 G2 | c2 B2 AG G2- | G2 ^F2 G4 | d4 g4 | e4 d4 | d4 d3 c | B2 A2 G4 | ^F4 z2 A2 | %25
w: jours je fi- ni-|ray ma * * vi-|* * e,|Que si|bien tôt|je ne te|voy, m'a- my-|e, En|
 A2 A2 d3 c | B2 G2 c2 B2 | AG G2- G2 ^F2 | G8 |] %29
w: peu de jours je|fi- ni- ray ma|vi- * * * *|e.|
V:2
 G8 | G8 | z2 F2 F4- | F4 A4 | A2 A2 F2 F2 | G8 | G2 ^FE F4- | F4 z2 =F2 | F2 F2 D2 D2 | %9
w: L'en-|nuy,|le dueil,|* la|pei- neet le mar-|ty-|* * * re,|* Que|je re- çoy, si|
 G3 F _E2 E2 | D4 D4- | D4 G4 | B4 G4 | ^F4 =F4 | F3 F F2 F2 | D4 D4- | D4 F4 | F2 F2 D2 D2 | %18
w: fort mon coeur em-|pi- re,|* Que|si bien|tôt je|ne te voy, m'a-|my- e,|* En|peu de jours je|
 G3 F _E2 E2 | D4 D4 | G4 B4 | G4 ^F4 | F4 F3 F | F2 F2 D4 | D8 | F4 F2 F2 | D2 D2 G3 F | %27
w: fi- ni- ray ma|vi- e,|Que si|bien tôt|je ne te|voy, m'a- my-|e,|En peu de|jours je fi- ni-|
 _E2 E2 D4 | D8 |] %29
w: ray ma vi-|e.|
V:3
 =B8 | c8 | z2 A2 A4- | A4 c4 | c2 c2 B3 A | G8 | A4 z2 A2 | A2 A2 d3 c | B2 A2 B4 | G4 c4 | %10
w: L'en-|nuy,|le dueil,|* la|pei- neet le mar-|ty-|re, Que|je re- çoy, si|fort mon coeur|em- pi-|
 A4 G4- | G4 B4 | d4 c4 | A4 B4 | B3 c d2 c2 | B4 A2 A2 | A2 A2 d3 c | B2 A2 B4 | G4 c3 B | A4 G4 | %20
w: * re,|* Que|si bien|tôt je|ne te voy, m'a-|my- e, En|peu de jours je|fi- ni- ray|ma vi- *|* e,|
 B4 d4 | c4 A4 | B4 B3 c | d2 c2 B4 | A2 A2 A2 A2 | d3 c B2 A2 | B4 G4 | c3 B A4 | G8 |] %29
w: Que si|bien tôt|je ne te|voy, m'a- my-|e, En peu de|jours je fi- ni-|ray ma|vi- * *|e.|
V:4
 G,8 | C,8 | z2 F,2 F,4- | F,4 F,4 | F,2 F,2 B,,2 B,,2 | _E,8 | D,8- | D,4 z2 D,2 | %8
w: L'en-|nuy,|le dueil,|* la|pei- neet le mar-|ty-|re,|* Que|
 D,2 D,2 G,3 F, | _E,3 D, C,2 C,2 | D,4 G,4- | G,4 G,4 | G,4 C,4 | D,4 B,,4 | B,,3 B,, B,,2 F,2 | %15
w: je re- çoy, si|fort mon coeur em-|pi- re,|* Que|si bien|tôt je|ne te voy, m'a-|
 G,4 D,4- | D,4 z2 D,2 | D,2 D,2 G,3 F, | _E,2 E,2 C,2 C,2 | D,4 G,4 | G,4 G,4 | C,4 D,4 | %22
w: my- e,|* En|peu de jours je|fi- ni- ray ma|vi- e,|Que si|bien tôt|
 B,,4 B,,3 B,, | B,,2 F,2 G,4 | D,8 | z2 D,2 D,2 D,2 | G,3 F, _E,2 E,2 | C,2 C,2 D,4 | G,8 |] %29
w: je ne te|voy, m'a- my-|e,|En peu de|jours je fi- ni-|ray ma vi-|e.|

